X: 49
M:4/4
L:1/8
K:G
ea a2 caea|Bg g2 dgBg|ea a2 caec|BEEF GABG|
ea a2 caea|Bg g2 dgBg|afge fdec|BEEF GABG||

